source/img/icons/map-pin.svg

<svg width="53" height="57" viewBox="0 0 94 104" fill="none" xmlns="http://www.w3.org/2000/svg">
<path d="M66.0801 86.6001C82.2201 79.6001 93.4601 63.9001 93.4601 45.6601C93.4601 20.8901 72.7301 0.810062 47.1601 0.810062C21.5601 0.800062 0.830078 20.8901 0.830078 45.6601C0.830078 70.4301 21.5601 90.5101 47.1401 90.5101V103.87L66.0801 86.6001Z" fill="white"/>
<path d="M73.36 35.8C71.5453 31.4097 68.6152 27.5696 64.86 24.66C61.1139 21.7638 56.6706 19.906 51.9779 19.274C47.2852 18.642 42.5088 19.258 38.13 21.06C33.7466 22.8722 29.9156 25.8032 27.02 29.56C24.1083 33.3357 22.231 37.8052 21.5734 42.5276C20.9158 47.2501 21.5006 52.0624 23.27 56.49C25.0235 60.9102 27.9019 64.7953 31.62 67.76C35.3262 70.7102 39.7446 72.6314 44.43 73.33C43.83 71.1 43.2 68.64 42.65 66.03C44.2474 67.076 45.93 67.9859 47.68 68.75C47.68 68.75 47.81 71.05 47.98 73.62C49.869 73.653 51.7563 73.4854 53.61 73.12C53.562 72.8521 53.562 72.5778 53.61 72.31C53.91 70.31 54.76 66.72 54.93 64.41C56.1489 63.2564 57.1812 61.9205 57.99 60.45L57.93 60.92C57.35 65.47 56.13 70.32 55.39 71.66C55.15 72.1 54.86 72.52 54.52 72.88C58.3483 71.9719 61.9319 70.2381 65.02 67.8C68.1271 65.3523 70.6647 62.2582 72.4571 58.7323C74.2495 55.2063 75.2536 51.3327 75.4 47.38C75.56 43.42 74.87 39.47 73.36 35.81V35.8ZM71.81 39.85C71.34 40.31 70.38 40.62 70.22 39.23C70.06 37.84 70.02 36.87 70.02 36.87C70.02 36.87 67.98 33.22 67.22 33.17C66.46 33.13 61.06 36.87 59.63 38.51C58.4 39.88 58.15 39.78 58.15 42.21C58.15 44.03 58.39 50.91 58.25 56.18L49.65 58.49C46.94 59.28 44.18 59.89 41.4 60.33L40.34 54.11H40.2L37.48 40.07C37.48 40.07 33.45 38.54 31.98 38.12C31.2854 37.8119 30.5165 37.7112 29.766 37.8301C29.0155 37.9489 28.3153 38.2823 27.75 38.79C27.1687 39.3021 26.7044 39.9333 26.3886 40.6408C26.0729 41.3482 25.913 42.1153 25.92 42.89C26.14 43.39 26.32 43.91 26.42 44.44C26.48 44.95 25.16 44.9 24.32 44.9C23.47 44.9 23.34 43.37 24.01 41.56C24.5283 40.178 25.1709 38.8459 25.93 37.58C26.5 36.45 27.23 35.41 28.12 34.5C28.12 34.5 28.26 34.13 29.44 34.24C30.61 34.34 37.14 34.7 37.14 34.7L37.18 32.28C44.28 31.29 51.42 30.82 58.58 30.85V32.8C61.2867 31.5541 64.2046 30.8314 67.18 30.67C67.3392 30.6673 67.4966 30.7043 67.638 30.7776C67.7794 30.8509 67.9004 30.9583 67.99 31.09C68.35 31.54 70.54 34.29 70.79 34.68C71.5028 35.7051 72.1507 36.7738 72.73 37.88C72.53 38.58 72.22 39.24 71.81 39.84V39.85Z" fill="#FDC305"/>
<path d="M69.75 33.32C70.25 33.96 70.68 34.52 70.8 34.7C71.5128 35.7251 72.1607 36.7939 72.74 37.9C72.54 38.57 72.23 39.22 71.83 39.8C71.36 40.25 70.4 40.56 70.24 39.18C70.09 37.79 70.02 36.88 70.02 36.88C70.02 36.88 67.98 33.22 67.22 33.18C66.46 33.13 61.06 36.88 59.63 38.51C58.4 39.88 58.15 39.78 58.15 42.21C58.15 43.81 58.33 49.29 58.29 54.18C60.2 54.38 63.01 54.92 63.86 56.18C63.86 56.18 63.56 48.53 72.11 52.53C72.11 52.53 72.41 42.1 84.23 44.77C80.2214 40.0195 75.2967 36.1253 69.75 33.32ZM58.62 30.85C58.66 24.95 58.17 19.05 57.14 13.23C57.14 13.23 56.98 11.84 56.22 12.97C55.5906 14.3238 55.1627 15.7623 54.95 17.24C50.43 16.94 45.9 17.07 41.4 17.6C40.54 14.67 39.06 13.34 38.35 13.69C37.64 14.04 37.55 17.19 37.55 17.19L37.21 32.28C44.2999 31.292 51.4516 30.8141 58.61 30.85H58.62Z" fill="#F06351"/>
<path d="M57.9999 60.4499C58.1399 59.3099 58.2199 57.7999 58.2599 56.1299L49.6499 58.4399C46.9399 59.2399 44.1899 59.8699 41.3999 60.3299L42.5799 65.6599C42.5799 65.7699 42.5799 65.8899 42.6499 66.0099C44.2474 67.0559 45.93 67.9658 47.6799 68.7299C50.2373 67.4971 52.6716 66.0238 54.9499 64.3299V64.3899C56.1637 63.2417 57.1925 61.9126 57.9999 60.4499V60.4499Z" fill="#E55645"/>
<path d="M43.9 27.51C43.84 27.41 44.95 28.24 45.39 28.5C45.82 28.75 46.03 28.94 46.03 29.12C46.03 29.31 45.76 29.49 45.38 29.49C45 29.49 44.4 29.36 44.32 29.21C44.23 29.06 44.95 29.21 45.32 29.21H45.62C44.9692 28.7275 44.3901 28.1551 43.9 27.51V27.51ZM51.82 27.63C51.82 27.63 50.77 29 50.67 29.06C50.57 29.12 50.49 29.42 50.87 29.36C51.3103 29.2975 51.745 29.2005 52.17 29.07C52.27 29.01 52.23 28.86 52.03 28.87C51.83 28.9 51.32 28.93 50.98 29L51.88 27.64C51.88 27.64 51.91 27.51 51.82 27.64V27.63ZM48.5 34.15C49 33.93 49.4 33.55 49.66 33.08C49.96 32.38 49.66 32.11 49.19 32.01C48.55 31.9 47.89 32.02 47.34 32.38C46.93 32.77 46.98 33.15 47.34 33.44C47.7 33.72 48.09 33.96 48.5 34.14V34.15Z" fill="black"/>
<path d="M48.12 35.4901C48 35.7301 47.84 35.9501 47.64 36.1301C47.34 36.3701 46.97 36.5101 46.58 36.5301C45.9965 36.5878 45.4131 36.4196 44.95 36.0601C44.74 35.9401 44.55 35.7801 44.39 35.5801C44.29 35.4701 44.16 35.3801 44.01 35.3201C44.01 35.3201 44.81 39.7001 46.73 40.4001C48.65 41.1001 49.01 39.6001 49.06 39.1901C49.128 37.9765 48.8283 36.7706 48.2 35.7301C48.2 35.4101 48.18 35.6301 48.12 35.4901V35.4901Z" fill="#F06351"/>
<path d="M46.3301 36.7C45.8333 36.6297 45.3562 36.4587 44.928 36.1973C44.4998 35.9359 44.1296 35.5897 43.8401 35.18C43.8147 35.1509 43.8008 35.1136 43.8008 35.075C43.8008 35.0364 43.8147 34.9991 43.8401 34.97C43.8607 34.9464 43.8881 34.9299 43.9186 34.9227C43.9491 34.9155 43.9811 34.9181 44.0101 34.93L44.0501 34.97C44.3108 35.3391 44.6422 35.6529 45.0249 35.8932C45.4077 36.1335 45.8343 36.2956 46.2801 36.37C46.6346 36.344 46.9776 36.2332 47.2804 36.047C47.5832 35.8608 47.8369 35.6046 48.0201 35.3L48.1701 35.1L48.2701 35.33C48.2701 35.33 48.6701 36.13 49.3301 36.18C49.9801 36.22 50.4501 35.73 51.0501 34.81C51.0603 34.7927 51.0739 34.7776 51.0902 34.7656C51.1064 34.7536 51.1248 34.7451 51.1444 34.7404C51.164 34.7357 51.1844 34.7351 51.2042 34.7384C51.2241 34.7418 51.2431 34.7491 51.2601 34.76C51.278 34.771 51.2935 34.7857 51.3054 34.8031C51.3174 34.8206 51.3255 34.8403 51.3292 34.8611C51.333 34.8818 51.3324 34.9031 51.3273 34.9236C51.3223 34.9441 51.313 34.9633 51.3001 34.98C50.6001 36.02 49.9301 36.52 49.3001 36.48C49.0574 36.447 48.8253 36.3597 48.621 36.2247C48.4168 36.0896 48.2455 35.9103 48.1201 35.7C47.913 35.9898 47.6441 36.2299 47.3327 36.4028C47.0214 36.5758 46.6755 36.6773 46.3201 36.7H46.3301Z" fill="black"/>
<path d="M48.4 51.05C48.9227 51.0474 49.4397 50.9419 49.9216 50.7394C50.4034 50.537 50.8407 50.2416 51.2084 49.8702C51.5762 49.4988 51.8671 49.0585 52.0647 48.5747C52.2623 48.0908 52.3626 47.5727 52.36 47.05C52.36 44.85 50.59 43.05 48.4 43.05C47.8773 43.0527 47.3603 43.1582 46.8784 43.3606C46.3966 43.5631 45.9593 43.8585 45.5915 44.2299C45.2238 44.6013 44.9329 45.0416 44.7353 45.5254C44.5377 46.0093 44.4374 46.5274 44.44 47.05C44.44 49.26 46.21 51.05 48.4 51.05Z" fill="#FDC305"/>
<path d="M53.6501 43.7999L50.35 45.2L51.55 39.2L43.63 49.5999L46.94 48.2L45.7201 54.22L53.6501 43.7999V43.7999ZM45.85 47.8899L50.2401 42.1199L49.3801 46.38L51.4901 45.5099L47.07 51.29L47.92 47.02L45.84 47.8899H45.85ZM44.36 46.32C45.02 46.32 45.55 45.7799 45.55 45.1199C45.5652 44.9552 45.5458 44.7891 45.4932 44.6322C45.4405 44.4754 45.3557 44.3312 45.2442 44.209C45.1327 44.0867 44.9969 43.9891 44.8455 43.9223C44.6941 43.8555 44.5305 43.821 44.3651 43.821C44.1996 43.821 44.0359 43.8555 43.8846 43.9223C43.7332 43.9891 43.5974 44.0867 43.4859 44.209C43.3744 44.3312 43.2896 44.4754 43.2369 44.6322C43.1843 44.7891 43.1649 44.9552 43.18 45.1199C43.18 45.7799 43.71 46.32 44.36 46.32ZM51.25 50.65C51.71 50.65 52.09 50.27 52.09 49.81C52.0914 49.6988 52.0706 49.5885 52.029 49.4854C51.9874 49.3824 51.9257 49.2886 51.8476 49.2095C51.7694 49.1304 51.6764 49.0677 51.5738 49.0248C51.4713 48.982 51.3612 48.9599 51.25 48.9599C51.1397 48.9613 51.0308 48.9843 50.9293 49.0277C50.8279 49.0711 50.7361 49.1341 50.659 49.213C50.5819 49.292 50.5211 49.3853 50.4801 49.4877C50.4391 49.5901 50.4187 49.6996 50.42 49.81C50.42 50.27 50.79 50.65 51.25 50.65ZM52.27 48.33C52.3695 48.33 52.4649 48.2904 52.5352 48.2201C52.6055 48.1498 52.645 48.0544 52.645 47.955C52.645 47.8555 52.6055 47.7601 52.5352 47.6898C52.4649 47.6195 52.3695 47.58 52.27 47.58C52.07 47.58 51.9001 47.7499 51.9001 47.9599C51.9001 48.1599 52.06 48.33 52.27 48.33Z" fill="#111111"/>
<path d="M58.5701 32.78C56.6612 34.5144 54.8643 36.3682 53.1901 38.33C51.5215 40.2811 49.636 42.0358 47.5701 43.56C47.3401 42.99 45.8501 41.94 45.8501 41.94C45.8501 41.94 42.5301 39.64 40.3501 37.84C39.1754 36.8497 38.0695 35.7806 37.0401 34.64L34.9201 34.53C37.9612 39.0165 42.4353 42.3378 47.6101 43.95C48.5101 43.8 51.0701 41.95 52.9901 40.45C55.2542 38.5074 57.3731 36.4018 59.3301 34.15C59.8501 33.52 60.2601 32.8 60.5301 32.02C59.3301 32.42 58.5701 32.78 58.5701 32.78ZM37.4801 40.07C37.4801 40.07 33.4501 38.54 31.9801 38.12C31.2855 37.8119 30.5166 37.7112 29.7661 37.8301C29.0156 37.949 28.3155 38.2823 27.7501 38.79C27.1688 39.3022 26.7045 39.9334 26.3888 40.6408C26.073 41.3482 25.9132 42.1153 25.9201 42.89C26.1401 43.39 26.3201 43.91 26.4201 44.44C26.4801 44.95 25.1601 44.9 24.3201 44.9C23.4701 44.9 23.3401 43.37 24.0101 41.56C24.5284 40.178 25.1711 38.8459 25.9301 37.58C20.1701 40.6 10.0801 47.6 10.0801 47.6C12.9651 47.4227 15.8602 47.5064 18.7301 47.85C24.2801 48.42 24.0201 52.83 24.0201 52.83C25.9701 52.29 27.9601 51.89 29.9701 51.65C32.2101 51.5 32.3701 53.91 32.3701 53.91L32.9301 58.02C33.7801 57.1 34.7101 56.25 35.7301 55.51C37.0308 54.4563 38.6941 53.957 40.3601 54.12L37.4801 40.07V40.07Z" fill="#F06351"/>
</svg>

<svg width="94" height="104" viewBox="0 0 94 104" xmlns="http://www.w3.org/2000/svg">
  <path
    d="M66.08 86.6c16.14-7 27.38-22.7 27.38-40.94C93.46 20.89 72.73.81 47.16.81 21.56.8.83 20.89.83 45.66c0 24.77 20.73 44.85 46.31 44.85v13.36L66.08 86.6Z"
    fill="#fff" />
  <path
    d="M73.36 35.8a27.27 27.27 0 0 0-8.5-11.14 26.94 26.94 0 0 0-26.73-3.6 27.1 27.1 0 0 0-11.11 8.5 27.43 27.43 0 0 0-3.75 26.93 27.28 27.28 0 0 0 8.35 11.27 26.95 26.95 0 0 0 12.81 5.57c-.6-2.23-1.23-4.69-1.78-7.3a34.06 34.06 0 0 0 5.03 2.72s.13 2.3.3 4.87a26.7 26.7 0 0 0 5.63-.5 2.3 2.3 0 0 1 0-.81c.3-2 1.15-5.59 1.32-7.9a16.2 16.2 0 0 0 3.06-3.96l-.06.47c-.58 4.55-1.8 9.4-2.54 10.74-.24.44-.53.86-.87 1.22a27 27 0 0 0 10.5-5.08A27.28 27.28 0 0 0 75.4 47.38c.16-3.96-.53-7.91-2.04-11.57Zm-1.55 4.05c-.47.46-1.43.77-1.59-.62-.16-1.39-.2-2.36-.2-2.36s-2.04-3.65-2.8-3.7c-.76-.04-6.16 3.7-7.59 5.34-1.23 1.37-1.48 1.27-1.48 3.7 0 1.82.24 8.7.1 13.97l-8.6 2.31c-2.71.79-5.47 1.4-8.25 1.84l-1.06-6.22h-.14l-2.72-14.04s-4.03-1.53-5.5-1.95a3.94 3.94 0 0 0-4.23.67 5.4 5.4 0 0 0-1.83 4.1c.22.5.4 1.02.5 1.55.06.51-1.26.46-2.1.46-.85 0-.98-1.53-.31-3.34a24.41 24.41 0 0 1 1.92-3.98c.57-1.13 1.3-2.17 2.19-3.08 0 0 .14-.37 1.32-.26 1.17.1 7.7.46 7.7.46l.04-2.42c7.1-.99 14.24-1.46 21.4-1.43v1.95a23.63 23.63 0 0 1 8.6-2.13.96.96 0 0 1 .81.42c.36.45 2.55 3.2 2.8 3.59a29.9 29.9 0 0 1 1.94 3.2c-.2.7-.51 1.36-.92 1.96Z"
    fill="#FDC305" />
  <path
    d="M69.75 33.32c.5.64.93 1.2 1.05 1.38a29.9 29.9 0 0 1 1.94 3.2c-.2.67-.51 1.32-.91 1.9-.47.45-1.43.76-1.59-.62-.15-1.39-.22-2.3-.22-2.3s-2.04-3.66-2.8-3.7c-.76-.05-6.16 3.7-7.59 5.33-1.23 1.37-1.48 1.27-1.48 3.7 0 1.6.18 7.08.14 11.97 1.91.2 4.72.74 5.57 2 0 0-.3-7.65 8.25-3.65 0 0 .3-10.43 12.12-7.76a46.27 46.27 0 0 0-14.48-11.45ZM58.62 30.85c.04-5.9-.45-11.8-1.48-17.62 0 0-.16-1.39-.92-.26a15.3 15.3 0 0 0-1.27 4.27c-4.52-.3-9.05-.17-13.55.36-.86-2.93-2.34-4.26-3.05-3.91-.71.35-.8 3.5-.8 3.5l-.34 15.09a149.6 149.6 0 0 1 21.4-1.43Z"
    fill="#F06351" />
  <path
    d="M58 60.45c.14-1.14.22-2.65.26-4.32l-8.61 2.31c-2.71.8-5.46 1.43-8.25 1.89l1.18 5.33c0 .11 0 .23.07.35a34.06 34.06 0 0 0 5.03 2.72 44.75 44.75 0 0 0 7.27-4.4v.06A16.2 16.2 0 0 0 58 60.45Z"
    fill="#E55645" />
  <path
    d="M43.9 27.51c-.06-.1 1.05.73 1.49.99.43.25.64.44.64.62 0 .19-.27.37-.65.37s-.98-.13-1.06-.28c-.09-.15.63 0 1 0h.3a8.57 8.57 0 0 1-1.72-1.7ZM51.82 27.63s-1.05 1.37-1.15 1.43c-.1.06-.18.36.2.3a8.5 8.5 0 0 0 1.3-.29c.1-.06.06-.21-.14-.2-.2.03-.71.06-1.05.13l.9-1.36s.03-.13-.06 0ZM48.5 34.15c.5-.22.9-.6 1.16-1.07.3-.7 0-.97-.47-1.07-.64-.11-1.3.01-1.85.37-.41.39-.36.77 0 1.06.36.28.75.52 1.16.7Z"
    fill="#000" />
  <path
    d="M48.12 35.49c-.12.24-.28.46-.48.64-.3.24-.67.38-1.06.4a2.29 2.29 0 0 1-1.63-.47c-.21-.12-.4-.28-.56-.48-.1-.11-.23-.2-.38-.26 0 0 .8 4.38 2.72 5.08 1.92.7 2.28-.8 2.33-1.21a6.04 6.04 0 0 0-.86-3.46c0-.32-.02-.1-.08-.24Z"
    fill="#F06351" />
  <path
    d="M46.33 36.7a3.68 3.68 0 0 1-2.49-1.52.16.16 0 0 1 0-.21.15.15 0 0 1 .17-.04l.04.04a3.42 3.42 0 0 0 2.23 1.4 2.22 2.22 0 0 0 1.74-1.07l.15-.2.1.23s.4.8 1.06.85c.65.04 1.12-.45 1.72-1.37a.15.15 0 0 1 .21-.05.15.15 0 0 1 .04.22c-.7 1.04-1.37 1.54-2 1.5a1.63 1.63 0 0 1-1.18-.78 2.4 2.4 0 0 1-1.8 1Z"
    fill="#000" />
  <path d="M48.4 51.05a3.98 3.98 0 0 0 3.96-4c0-2.2-1.77-4-3.96-4a3.98 3.98 0 0 0-3.96 4c0 2.21 1.77 4 3.96 4Z"
    fill="#FDC305" />
  <path
    d="m53.65 43.8-3.3 1.4 1.2-6-7.92 10.4 3.31-1.4-1.22 6.02 7.93-10.42Zm-7.8 4.09 4.39-5.77-.86 4.26 2.11-.87-4.42 5.78.85-4.27-2.08.87ZM44.36 46.32c.66 0 1.19-.54 1.19-1.2a1.19 1.19 0 1 0-2.37 0c0 .66.53 1.2 1.18 1.2ZM51.25 50.65c.46 0 .84-.38.84-.84a.84.84 0 0 0-.84-.85.84.84 0 0 0-.83.85c0 .46.37.84.83.84ZM52.27 48.33a.37.37 0 0 0 0-.75c-.2 0-.37.17-.37.38 0 .2.16.37.37.37Z"
    fill="#111" />
  <path
    d="M58.57 32.78a61.01 61.01 0 0 0-5.38 5.55 33.8 33.8 0 0 1-5.62 5.23c-.23-.57-1.72-1.62-1.72-1.62s-3.32-2.3-5.5-4.1a33.84 33.84 0 0 1-3.31-3.2l-2.12-.11a23.93 23.93 0 0 0 12.69 9.42c.9-.15 3.46-2 5.38-3.5a61.19 61.19 0 0 0 6.34-6.3c.52-.63.93-1.35 1.2-2.13-1.2.4-1.96.76-1.96.76ZM37.48 40.07s-4.03-1.53-5.5-1.95a3.94 3.94 0 0 0-4.23.67 5.4 5.4 0 0 0-1.83 4.1c.22.5.4 1.02.5 1.55.06.51-1.26.46-2.1.46-.85 0-.98-1.53-.31-3.34a24.41 24.41 0 0 1 1.92-3.98C20.17 40.6 10.08 47.6 10.08 47.6a48 48 0 0 1 8.65.25c5.55.57 5.29 4.98 5.29 4.98 1.95-.54 3.94-.94 5.95-1.18 2.24-.15 2.4 2.26 2.4 2.26l.56 4.11c.85-.92 1.78-1.77 2.8-2.51a6.37 6.37 0 0 1 4.63-1.39l-2.88-14.05Z"
    fill="#F06351" />
</svg>
